packages/icons/src/components/Logo/assets/dark/kafka.svg

<svg width="20" height="20" viewBox="0 0 20 20" fill="none" xmlns="http://www.w3.org/2000/svg">
<path d="M13.5519 11.0775C12.7731 11.0775 12.0748 11.4226 11.5967 11.9658L10.3715 11.0984C10.5015 10.7403 10.5762 10.3558 10.5762 9.95337C10.5762 9.55789 10.5041 9.17983 10.3783 8.82703L11.6008 7.96885C12.0789 8.50936 12.7753 8.85253 13.5519 8.85253C14.9894 8.85253 16.1591 7.68303 16.1591 6.24531C16.1591 4.8076 14.9894 3.6381 13.5519 3.6381C12.1144 3.6381 10.9447 4.8076 10.9447 6.24531C10.9447 6.50265 10.9836 6.75079 11.0533 6.9858L9.83003 7.84442C9.31902 7.21046 8.58325 6.76783 7.74494 6.63271V5.15838C8.92594 4.91033 9.81579 3.86103 9.81579 2.60722C9.81579 1.1695 8.64609 0 7.20857 0C5.77105 0 4.60135 1.1695 4.60135 2.60722C4.60135 3.84423 5.46814 4.8806 6.62552 5.14635V6.63983C5.04601 6.91709 3.84094 8.29557 3.84094 9.95337C3.84094 11.6193 5.05794 13.0028 6.64886 13.2706V14.8476C5.47964 15.1046 4.60135 16.1473 4.60135 17.3928C4.60135 18.8305 5.77105 20 7.20857 20C8.64609 20 9.81579 18.8305 9.81579 17.3928C9.81579 16.1473 8.93749 15.1046 7.76827 14.8476V13.2706C8.57352 13.1349 9.30202 12.7112 9.8181 12.0784L11.0515 12.9514C10.983 13.1843 10.9447 13.43 10.9447 13.6847C10.9447 15.1224 12.1144 16.2919 13.5519 16.2919C14.9894 16.2919 16.1591 15.1224 16.1591 13.6847C16.1591 12.247 14.9894 11.0775 13.5519 11.0775ZM13.5519 4.98121C14.249 4.98121 14.816 5.54842 14.816 6.24531C14.816 6.94221 14.249 7.50937 13.5519 7.50937C12.8548 7.50937 12.2878 6.94221 12.2878 6.24531C12.2878 5.54842 12.8548 4.98121 13.5519 4.98121ZM5.94446 2.60722C5.94446 1.91033 6.51148 1.34316 7.20857 1.34316C7.90565 1.34316 8.47262 1.91033 8.47262 2.60722C8.47262 3.30411 7.90565 3.87128 7.20857 3.87128C6.51148 3.87128 5.94446 3.30411 5.94446 2.60722ZM8.47262 17.3928C8.47262 18.0897 7.90565 18.6568 7.20857 18.6568C6.51148 18.6568 5.94446 18.0897 5.94446 17.3928C5.94446 16.6959 6.51148 16.1287 7.20857 16.1287C7.90565 16.1287 8.47262 16.6959 8.47262 17.3928ZM7.20847 11.7163C6.23625 11.7163 5.44534 10.9255 5.44534 9.95337C5.44534 8.98115 6.23625 8.19024 7.20847 8.19024C8.18064 8.19024 8.97156 8.98115 8.97156 9.95337C8.97156 10.9255 8.18064 11.7163 7.20847 11.7163ZM13.5519 14.9488C12.8548 14.9488 12.2878 14.3816 12.2878 13.6847C12.2878 12.9878 12.8548 12.4207 13.5519 12.4207C14.249 12.4207 14.816 12.9878 14.816 13.6847C14.816 14.3816 14.249 14.9488 13.5519 14.9488Z" fill="white"/>
</svg>

<svg xmlns="http://www.w3.org/2000/svg" width="20" height="20" fill="none" viewBox="0 0 20 20">
    <path fill="#fff" d="M13.552 11.078a2.6 2.6 0 0 0-1.955.888l-1.226-.868c.13-.358.205-.742.205-1.145a3.3 3.3 0 0 0-.198-1.126l1.223-.858a2.6 2.6 0 0 0 1.95.884 2.61 2.61 0 0 0 2.608-2.608 2.61 2.61 0 0 0-2.607-2.607 2.61 2.61 0 0 0-2.499 3.348l-1.223.858a3.37 3.37 0 0 0-2.085-1.211V5.158a2.61 2.61 0 0 0 2.07-2.55A2.61 2.61 0 0 0 7.21 0 2.61 2.61 0 0 0 4.6 2.607a2.61 2.61 0 0 0 2.025 2.54V6.64A3.37 3.37 0 0 0 3.84 9.953a3.37 3.37 0 0 0 2.808 3.318v1.577A2.61 2.61 0 0 0 4.6 17.393 2.61 2.61 0 0 0 7.21 20a2.61 2.61 0 0 0 2.607-2.607 2.61 2.61 0 0 0-2.048-2.545V13.27a3.37 3.37 0 0 0 2.05-1.193l1.234.873a2.61 2.61 0 0 0 2.5 3.34 2.61 2.61 0 0 0 2.607-2.606 2.61 2.61 0 0 0-2.607-2.607m0-6.097c.697 0 1.264.567 1.264 1.264s-.567 1.264-1.264 1.264a1.266 1.266 0 0 1-1.264-1.264c0-.697.567-1.264 1.264-1.264M5.944 2.607a1.266 1.266 0 0 1 2.528 0c0 .697-.566 1.264-1.263 1.264a1.266 1.266 0 0 1-1.265-1.264m2.529 14.786c0 .697-.567 1.264-1.264 1.264a1.265 1.265 0 0 1-1.265-1.264 1.266 1.266 0 0 1 2.528 0m-1.265-5.677c-.972 0-1.763-.79-1.763-1.763S6.236 8.19 7.208 8.19c.973 0 1.764.791 1.764 1.763 0 .973-.791 1.763-1.764 1.763m6.344 3.233a1.266 1.266 0 0 1-1.264-1.264c0-.697.567-1.264 1.264-1.264s1.264.567 1.264 1.264-.567 1.264-1.264 1.264"/>
</svg>
